app/content/themes/irontheme/images/general/instagram.svg

<svg width="77" height="77" viewBox="0 0 77 77" fill="none" xmlns="http://www.w3.org/2000/svg">
<path d="M76.7685 22.6267C76.5811 18.5286 75.9302 15.7299 74.9785 13.2814C74.0122 10.7124 72.4965 8.38545 70.5379 6.4621C68.6151 4.50349 66.2876 2.98725 63.7186 2.02029C61.2695 1.06918 58.4714 0.418861 54.3733 0.232635C50.2675 0.0446472 48.9557 0 38.5 0C28.0443 0 26.7325 0.0446472 22.6267 0.23146C18.5286 0.418861 15.7305 1.06977 13.2814 2.02146C10.7124 2.98784 8.38545 4.50349 6.4621 6.4621C4.50349 8.38486 2.98725 10.7118 2.02029 13.2808C1.06918 15.7299 0.418861 18.5286 0.232635 22.6262C0.0446472 26.7325 0 28.0437 0 38.4994C0 48.9557 0.0446472 50.2675 0.232635 54.3733C0.419449 58.4708 1.07036 61.2695 2.02205 63.7186C2.98843 66.287 4.50408 68.6145 6.46268 70.5373C8.38545 72.4959 10.713 74.0116 13.282 74.978C15.7305 75.9302 18.5292 76.5806 22.6273 76.768C26.7337 76.9554 28.0449 76.9994 38.5006 76.9994C48.9563 76.9994 50.2681 76.9554 54.3738 76.768C58.472 76.5806 61.2701 75.9302 63.7192 74.978C68.8907 72.9782 72.9788 68.8901 74.9785 63.7186C75.9308 61.2695 76.5811 58.4708 76.7685 54.3733C76.9554 50.2669 77 48.9557 77 38.5C77 28.0437 76.9554 26.7325 76.7685 22.6267ZM69.8382 54.0578C69.6673 57.8117 69.0399 59.8502 68.5129 61.2066C67.2176 64.5646 64.564 67.2181 61.206 68.5135C59.8496 69.0405 57.8111 69.6679 54.0572 69.8388C49.9984 70.0245 48.7806 70.0632 38.5 70.0632C28.2188 70.0632 27.0016 70.0245 22.9422 69.8388C19.1889 69.6679 17.1504 69.0405 15.7934 68.5135C14.1214 67.8961 12.6087 66.9121 11.3668 65.6332C10.0879 64.3913 9.10392 62.8791 8.4865 61.2066C7.95954 59.8502 7.33213 57.8117 7.16118 54.0578C6.97613 49.9984 6.93677 48.7806 6.93677 38.5006C6.93677 28.22 6.97613 27.0028 7.16118 22.9428C7.33272 19.1889 7.95954 17.1504 8.4865 15.794C9.10392 14.1214 10.0885 12.6087 11.3668 11.3668C12.6087 10.0879 14.1214 9.10392 15.794 8.48708C17.1504 7.95954 19.1889 7.33272 22.9428 7.16118C27.0022 6.97613 28.22 6.93677 38.5 6.93677H38.4994C48.7794 6.93677 49.9972 6.97613 54.0572 7.16177C57.8111 7.33272 59.849 7.96013 61.206 8.48708C62.878 9.10451 64.3907 10.0885 65.6326 11.3668C66.9115 12.6087 67.8955 14.1214 68.5123 15.794C69.0399 17.1504 69.6673 19.1889 69.8382 22.9428C70.0233 27.0022 70.0626 28.22 70.0626 38.5C70.0626 48.7806 70.0239 49.9978 69.8382 54.0578Z" fill="url(#paint0_linear)"/>
<path d="M38.4994 18.7295C27.5808 18.7295 18.7295 27.5814 18.7295 38.5C18.7295 49.4186 27.5808 58.2699 38.4994 58.2699C49.4186 58.2699 58.2699 49.4186 58.2699 38.5C58.2699 27.5814 49.4186 18.7295 38.4994 18.7295ZM38.4994 51.3331C31.4123 51.3325 25.6663 45.5871 25.6669 38.4994C25.6669 31.4122 31.4123 25.6663 38.5 25.6663C45.5877 25.6668 51.3331 31.4122 51.3331 38.4994C51.3331 45.5871 45.5872 51.3331 38.4994 51.3331Z" fill="url(#paint1_linear)"/>
<path d="M63.671 17.949C63.671 20.5004 61.6026 22.5688 59.0512 22.5688C56.4993 22.5688 54.4308 20.5004 54.4308 17.949C54.4308 15.3971 56.4993 13.3286 59.0512 13.3286C61.6026 13.3286 63.671 15.3971 63.671 17.949Z" fill="url(#paint2_linear)"/>
<defs>
<linearGradient id="paint0_linear" x1="6.46171" y1="70.5377" x2="70.5383" y2="6.46109" gradientUnits="userSpaceOnUse">
<stop stop-color="#FFD600"/>
<stop offset="0.5" stop-color="#FF0100"/>
<stop offset="1" stop-color="#D800B9"/>
</linearGradient>
<linearGradient id="paint1_linear" x1="24.5201" y1="52.4794" x2="52.4794" y2="24.5201" gradientUnits="userSpaceOnUse">
<stop stop-color="#FF6400"/>
<stop offset="0.5" stop-color="#FF0100"/>
<stop offset="1" stop-color="#FD0056"/>
</linearGradient>
<linearGradient id="paint2_linear" x1="55.7843" y1="21.2155" x2="62.3178" y2="14.682" gradientUnits="userSpaceOnUse">
<stop stop-color="#F30072"/>
<stop offset="1" stop-color="#E50097"/>
</linearGradient>
</defs>
</svg>

<svg width="77" height="77" viewBox="0 0 77 77" fill="none" xmlns="http://www.w3.org/2000/svg"><path d="M76.769 22.627c-.188-4.098-.839-6.897-1.79-9.346a18.868 18.868 0 00-4.441-6.819 18.875 18.875 0 00-6.82-4.442C61.27 1.07 58.472.42 54.374.233 50.268.045 48.956 0 38.5 0S26.733.045 22.627.231c-4.098.188-6.896.839-9.346 1.79a18.869 18.869 0 00-6.819 4.441 18.872 18.872 0 00-4.442 6.819C1.07 15.73.42 18.529.233 22.626.045 26.733 0 28.044 0 38.5c0 10.457.045 11.768.233 15.874.186 4.098.837 6.897 1.79 9.346a18.867 18.867 0 004.44 6.818 18.864 18.864 0 006.819 4.441c2.448.952 5.247 1.603 9.345 1.79 4.107.187 5.418.231 15.874.231 10.455 0 11.767-.044 15.873-.231 4.098-.187 6.896-.838 9.345-1.79 5.172-2 9.26-6.088 11.26-11.26.952-2.449 1.602-5.247 1.79-9.345.186-4.106.231-5.417.231-15.873s-.045-11.767-.231-15.873zm-6.93 31.43c-.172 3.755-.8 5.793-1.326 7.15a12.749 12.749 0 01-7.307 7.306c-1.356.527-3.395 1.155-7.149 1.326-4.059.186-5.276.224-15.557.224s-11.498-.038-15.558-.224c-3.753-.171-5.792-.799-7.149-1.326a11.93 11.93 0 01-4.426-2.88 11.927 11.927 0 01-2.88-4.426c-.527-1.357-1.155-3.395-1.326-7.15-.185-4.059-.224-5.276-.224-15.556 0-10.281.04-11.498.224-15.558.172-3.754.799-5.793 1.325-7.149a11.936 11.936 0 012.88-4.427 11.92 11.92 0 014.428-2.88c1.356-.527 3.395-1.154 7.149-1.326 4.06-.185 5.277-.224 15.557-.224 10.28 0 11.497.04 15.557.225 3.754.17 5.792.798 7.149 1.325a11.937 11.937 0 014.427 2.88 11.92 11.92 0 012.88 4.427c.527 1.356 1.154 3.395 1.325 7.149.185 4.06.225 5.277.225 15.557 0 10.28-.04 11.498-.225 15.558z" fill="url(#paint0_linear)"/><path d="M38.5 18.73c-10.92 0-19.77 8.851-19.77 19.77 0 10.919 8.85 19.77 19.77 19.77 10.919 0 19.77-8.851 19.77-19.77 0-10.919-8.851-19.77-19.77-19.77zm0 32.603c-7.088 0-12.834-5.746-12.833-12.834 0-7.087 5.745-12.833 12.833-12.833S51.333 31.412 51.333 38.5c0 7.088-5.746 12.834-12.834 12.834z" fill="url(#paint1_linear)"/><path d="M63.671 17.949a4.62 4.62 0 11-9.24 0 4.62 4.62 0 019.24 0z" fill="url(#paint2_linear)"/><defs><linearGradient id="paint0_linear" x1="6.462" y1="70.538" x2="70.538" y2="6.461" gradientUnits="userSpaceOnUse"><stop stop-color="#FFD600"/><stop offset=".5" stop-color="#FF0100"/><stop offset="1" stop-color="#D800B9"/></linearGradient><linearGradient id="paint1_linear" x1="24.52" y1="52.479" x2="52.479" y2="24.52" gradientUnits="userSpaceOnUse"><stop stop-color="#FF6400"/><stop offset=".5" stop-color="#FF0100"/><stop offset="1" stop-color="#FD0056"/></linearGradient><linearGradient id="paint2_linear" x1="55.784" y1="21.215" x2="62.318" y2="14.682" gradientUnits="userSpaceOnUse"><stop stop-color="#F30072"/><stop offset="1" stop-color="#E50097"/></linearGradient></defs></svg>
